X: 15728
T: Golden Stud, The
R: reel
M: 4/4
K: Gminor
|:G2GB A2 Ac|B2 Bd cdec|dcBd cBAc|BGAF GFDF|
G2GB A2 Ac|B2 Bd cdec|dcBd cBAc|BGAF G2 D2:|
|:e2 e/e/e edce|d2 d/d/d dcBd|Bcc/c/c cBAc|BGAF GFDF|
e2 e/e/e edce|d2 d/d/d dcBd|Bcc/c/c cBAc|BGAF G2 D2:|

